svgs/sharp-solid/cart-minus.svg

<svg xmlns="http://www.w3.org/2000/svg" viewBox="0 0 576 512"><!--! Font Awesome Pro 6.4.2 by @fontawesome - https://fontawesome.com License - https://fontawesome.com/license (Commercial License) Copyright 2023 Fonticons, Inc. --><path d="M0 0H24 96h19.9l3.7 19.5L122 32H576L496 288H170.7l9.1 48H488h24v48H488 160 140.1l-3.7-19.5L76.1 48H24 0V0zM128 464a48 48 0 1 1 96 0 48 48 0 1 1 -96 0zm336-48a48 48 0 1 1 0 96 48 48 0 1 1 0-96zM256 172H416V132H256v40z"/></svg>

<svg xmlns="http://www.w3.org/2000/svg" viewBox="0 0 576 512"><!--! Font Awesome Pro 6.6.0 by @fontawesome - https://fontawesome.com License - https://fontawesome.com/license (Commercial License) Copyright 2024 Fonticons, Inc. --><path d="M0 0L24 0 96 0l19.9 0 3.7 19.5L122 32l454 0L496 288l-325.3 0 9.1 48L488 336l24 0 0 48-24 0-328 0-19.9 0-3.7-19.5L76.1 48 24 48 0 48 0 0zM128 464a48 48 0 1 1 96 0 48 48 0 1 1 -96 0zm336-48a48 48 0 1 1 0 96 48 48 0 1 1 0-96zM256 172l160 0 0-40-160 0 0 40z"/></svg>
